X:1
T:[ID 5-2]
C:Urheber unbekannt
C:Datum in der hier transkribierten schriftlichen Quelle: 1773
L:1/8
M:2/4
I:linebreak $
K:D
V:1 treble 
V:1
 f>a gg | e/f/e/c/ dd | f>a ge | c/d/e/c/ d2 :: aa/f/ b2 | gg/e/ aa | ff/d/ cd | e2 A2 | %8
 aa/f/ bb |$ gg/e/ aa | ff/d/ c/d/e/c/ | d2 :| %12
